X:1
T:Baby Elephant Walk
C:Henry Mancini
Z:All Rights Reserved
L:1/8
M:4/4
K:F
V:1 treble nm=" " snm=" "
%%MIDI control 7 100
%%MIDI control 10 64
V:1
"F7" F>A .c.f (ag).f.d | (=B.c) z2 z4 |"F7" F>A .c.f (ag).f.d | c6 d_A- |"Bb7" A6- Ad | %5
 (_A.F) z2 z4 |"F7" F>A .c.f (ag).f.d | (=B.c) z2 z2 z c |"C7" g2 g2 (e.c) z c | %9
"Bb7" f2 f2 (_e/f/e/c/ B)_A |"F7" =B2 B2 (_B/=B/_B/_A/ F)C | (_E.F) z2"C7" z4 |] %12

